public/svg/video.svg

<svg width="325" height="268" viewBox="0 0 325 268" fill="none" xmlns="http://www.w3.org/2000/svg">
<path d="M6.70133 153.472C17.4978 148.194 19.6686 143.058 16.0983 132.045C13.7807 125.484 11.0622 119.071 7.95806 112.843C0.988885 98.2911 -1.26753 83.3972 3.15962 67.5619C7.9295 50.4425 15.4128 41.141 38.5196 37.2036C49.5161 35.349 60.2269 37.8313 70.6235 41.6261C81.5306 45.6027 92.6956 48.8342 104.041 51.2985C116.104 53.9917 128.628 53.8549 140.63 50.899C142.905 50.4102 144.965 49.2111 146.513 47.4752C154.368 38.6302 160.337 28.9007 161.137 16.6603C161.424 12.0187 162.386 7.44351 163.993 3.07899C164.365 2.08036 164.879 0.767884 166.335 0.96761C166.908 1.07613 167.443 1.33376 167.884 1.7145C168.325 2.09525 168.658 2.58561 168.849 3.13604C169.184 4.47189 169.376 5.83968 169.42 7.21616C169.936 13.4595 170.794 19.6698 171.991 25.8192C175.904 41.9684 187.157 48.9303 203.409 44.5363C213.235 41.8543 222.917 38.5446 232.6 35.3775C244.599 31.534 257.13 29.6081 269.731 29.671C274.148 29.6049 278.563 29.9199 282.926 30.6126C303.72 34.0935 315.087 47.732 321.371 66.5918C326.17 81.0291 323.827 95.124 317.915 108.62C314.773 115.063 312.137 121.741 310.032 128.592C308.751 132.479 308.751 136.674 310.031 140.561C311.311 144.448 313.803 147.823 317.144 150.191C319.143 151.789 321.143 153.387 323.085 155.013C325.027 156.639 324.856 158.323 322.799 159.493C314.459 164.258 313.659 172.561 313.259 180.635C312.774 190.365 313.259 200.123 313.259 209.881C313.304 217.581 312.344 225.254 310.403 232.706C306.547 246.716 296.808 255.39 284.269 261.239C277.214 264.577 269.731 263.693 262.39 262.123C250.423 259.584 239.74 253.963 229.115 248.199C217.49 241.894 205.866 235.503 192.698 232.849C191.556 232.621 190.442 232.364 189.271 232.193C179.503 230.937 177.646 232.193 173.962 241.124C172.562 245.03 170.911 248.842 169.02 252.536C166.335 257.244 164.079 257.216 161.109 252.536C157.721 246.914 152.755 242.41 146.828 239.583C143.304 237.744 139.328 236.948 135.367 237.286C131.406 237.625 127.623 239.085 124.463 241.494C121.036 243.891 117.723 246.43 114.295 248.827C100.907 258.365 85.5076 264.71 69.2811 267.373C60.7104 268.761 51.9199 267.496 44.0893 263.75C27.4089 255.789 18.3833 244.119 19.2973 218.925C19.6386 211.751 21.1734 204.683 23.8386 198.011C25.8134 193.054 27.2033 187.883 27.9802 182.604C29.1227 174.044 27.7802 164.8 16.1269 160.063C12.4147 158.82 9.14145 156.531 6.70133 153.472ZM317.458 159.921C316.019 157.941 314.143 156.321 311.974 155.184C302.092 148.194 299.978 141.888 302.949 129.933C304.719 122.857 308.347 116.637 311.003 109.961C315.659 98.2626 317.915 86.279 314.259 73.9531C307.861 52.3542 293.523 36.319 270.131 34.4074C262.022 33.6823 253.856 33.893 245.796 35.0351C233.663 37.2261 221.745 40.4721 210.178 44.7361C203.862 47.0981 197.186 48.353 190.442 48.4453C178.789 48.217 171.905 43.5662 167.449 32.724C166.678 30.8694 166.85 28.5297 164.593 27.0175C162.651 30.7267 160.937 34.3788 158.881 37.8598C154.539 45.2211 149.141 51.6409 140.487 53.952C129.408 57.3799 117.747 58.5253 106.212 57.3188C90.3915 54.7607 74.8766 50.5824 59.9127 44.8502C52.0203 42.0009 43.6485 40.712 35.2635 41.0554C23.4102 41.5404 15.9555 47.5893 11.614 58.3745C8.17496 66.4031 6.57001 75.0964 6.91585 83.8223C7.2617 92.5483 9.54965 101.088 13.6134 108.819C16.4696 114.526 19.0973 120.061 21.5537 125.939C26.6092 137.808 23.6387 146.111 12.985 152.502C12.6423 152.702 12.5566 153.273 12.3852 153.587C15.2414 154.671 18.0976 155.612 20.7825 156.839C24.7638 158.316 28.1303 161.091 30.3382 164.715C32.546 168.339 33.4662 172.601 32.95 176.812C32.6525 182.374 31.6936 187.882 30.0938 193.218C27.4503 200.415 25.695 207.908 24.8669 215.53C24.1814 227.114 25.381 238.356 32.7786 247.914C36.2759 252.28 40.6331 255.883 45.5804 258.499C50.5278 261.114 55.96 262.688 61.5408 263.122C77.3928 265.034 91.1883 259.099 104.755 252.28C112.016 248.148 118.992 243.535 125.634 238.47C139.487 228.969 152.397 232.592 162.365 244.89C163.508 246.288 163.851 248.371 166.05 249.084C166.907 246.973 167.706 244.833 168.592 242.721C170.485 237.422 174.201 232.967 179.076 230.151C183.952 227.334 189.67 226.339 195.212 227.342C203.97 228.552 212.465 231.214 220.347 235.217C228.915 239.469 237.227 244.034 245.738 248.257C255.567 253.621 266.462 256.749 277.642 257.415C281.683 257.779 285.744 256.978 289.343 255.107C292.943 253.236 295.93 250.373 297.95 246.858C301.668 240.41 303.911 233.219 304.519 225.802C305.719 213.761 305.005 201.692 305.233 189.623C305.462 178.153 307.29 167.425 317.372 159.949L317.458 159.921Z" fill="#3A3C51"/>
<path d="M163.053 128.82C164.824 126.195 166.481 123.428 168.451 120.917C171.941 115.964 176.956 112.286 182.732 110.446C190.501 108.363 195.585 112.129 195.928 120.061C196.041 124.25 195.323 128.419 193.815 132.33C187.918 147.704 180.106 162.274 170.565 175.699C169.066 178.066 166.886 179.926 164.31 181.034C159.369 183.06 157.369 182.661 154.256 178.181C144.233 163.963 135.741 148.728 128.921 132.729C127.66 129.748 126.768 126.625 126.265 123.428C125.094 116.209 126.693 111.787 131.578 109.675C138.261 106.822 144.716 106.109 149.4 111.929C153.018 116.437 156.617 120.964 160.197 125.511C161.082 126.709 161.454 128.193 163.053 128.82Z" fill="#3A3C51"/>
<path d="M43.9773 182.805C45.2293 183.301 46.2655 184.223 46.9031 185.408C47.5407 186.593 47.7386 187.965 47.4619 189.282C47.3506 193.185 46.588 197.042 45.2055 200.694C42.7967 206.243 40.8107 211.966 39.2646 217.814C38.4196 221.199 38.2162 224.711 38.6648 228.171C40.4927 239.241 47.2334 245.119 61.2575 247.002C68.2305 247.617 75.2485 246.53 81.708 243.835C89.7911 240.982 97.9599 238.3 106.1 235.561C108.47 234.598 111.063 234.321 113.583 234.762C114.155 236.388 112.755 236.788 111.927 237.273C100.033 244.583 86.8791 249.615 73.1393 252.109C63.722 253.432 54.1558 251.094 46.4129 245.578C38.6701 240.063 33.3409 231.789 31.5242 222.464C30.8449 219.029 30.9033 215.49 31.6956 212.079C32.2821 209.592 33.0751 207.158 34.0662 204.803C37.2652 197.556 40.6355 190.252 43.9773 182.805Z" fill="#3A3C51"/>
<path d="M25.2084 115.78C19.6053 103.661 16.0719 90.6895 14.7546 77.4045C14.3736 73.5703 14.8613 69.6996 16.1814 66.0792C17.5015 62.4588 19.6203 59.1816 22.3807 56.4904C24.8472 53.8362 27.9422 51.844 31.381 50.6973C34.8199 49.5506 38.4921 49.286 42.0601 49.928C47.1284 50.6429 52.0647 52.0944 56.7125 54.2364C69.6735 60.4903 83.2715 65.3307 97.2708 68.6737C98.6704 69.0161 100.641 68.6737 101.27 71.8408C95.6208 72.2744 89.9416 72.0926 84.3322 71.2986C74.2413 69.5418 64.4514 66.3619 55.2558 61.8545C49.8698 59.0959 43.9625 57.5016 37.9186 57.1752C34.1917 56.9888 30.4805 57.7755 27.1506 59.4578C19.3817 63.5094 16.3541 68.9305 17.5823 77.6043C18.6449 84.7129 20.2005 91.7393 22.2379 98.6325C23.8374 104.253 25.8368 109.703 25.2084 115.78Z" fill="#3A3C51"/>
<path d="M241.914 44.0518C246.519 43.6354 251.096 42.9591 255.624 42.026C257.224 41.8549 258.823 41.4554 260.423 41.2842C295.326 37.8033 309.407 65.2798 306.75 90.0458C305.444 100.848 303.003 111.482 299.467 121.774C298.721 117.89 298.587 113.915 299.067 109.99C299.61 102.143 300.81 94.3542 300.638 86.4507C300.067 59.0598 276.617 40.0003 250.569 45.1931C247.427 45.8208 244.028 45.1931 241.086 46.8765L241.914 44.0518Z" fill="#3A3C51"/>
<path d="M296.67 201.205C297.526 211.905 299.154 222.661 294.984 232.99C292.387 238.762 287.824 243.426 282.108 246.153C276.392 248.881 269.892 249.494 263.766 247.884C258.388 246.364 253.308 243.942 248.742 240.722C242.544 236.357 236.803 231.335 229.605 228.425C236.333 228.639 242.968 230.05 249.199 232.591C257.225 235.644 265.108 239.096 273.22 241.864C282.274 244.945 286.873 242.377 290.357 233.304C293.642 224.915 293.214 216.013 294.413 207.282C294.842 205.228 294.527 202.888 296.67 201.205Z" fill="#3A3C51"/>
</svg>

<svg xmlns="http://www.w3.org/2000/svg" width="325" height="268" fill="#3a3c51" xmlns:v="https://vecta.io/nano"><path d="M6.7 153.472c10.796-5.278 12.967-10.414 9.397-21.427a170.09 170.09 0 0 0-8.14-19.202C1 98.3-1.268 83.397 3.16 67.562c4.77-17.12 12.253-26.42 35.36-30.358 10.997-1.855 21.707.628 32.104 4.422a256.41 256.41 0 0 0 33.417 9.672 80.06 80.06 0 0 0 36.589-.399 10.97 10.97 0 0 0 5.883-3.424c7.855-8.845 13.824-18.574 14.624-30.815.287-4.642 1.25-9.217 2.856-13.58.372-1 .886-2.3 2.342-2.1.573.1 1.108.366 1.55.747a3.3 3.3 0 0 1 .965 1.422 19.31 19.31 0 0 1 .571 4.08 171.14 171.14 0 0 0 2.571 18.603c3.913 16.15 15.166 23.1 31.418 18.717 9.826-2.682 19.508-5.992 29.2-9.16a119.76 119.76 0 0 1 37.131-5.706 76.82 76.82 0 0 1 13.195.942c20.794 3.48 32.16 17.12 38.445 35.98 4.8 14.437 2.456 28.532-3.456 42.028a138.11 138.11 0 0 0-7.883 19.972c-1.28 3.887-1.28 8.082-.001 11.97a19.14 19.14 0 0 0 7.113 9.63l5.94 4.822c1.942 1.626 1.77 3.3-.286 4.48-8.34 4.765-9.14 13.068-9.54 21.142-.485 9.73 0 19.488 0 29.246a88.5 88.5 0 0 1-2.856 22.825c-3.856 14-13.595 22.684-26.134 28.533-7.055 3.338-14.538 2.454-21.88.884-11.967-2.54-22.65-8.16-33.275-13.924-11.625-6.305-23.25-12.696-36.417-15.35-1.142-.228-2.256-.485-3.427-.656-9.768-1.256-11.625 0-15.3 8.93a96.33 96.33 0 0 1-4.942 11.412c-2.685 4.708-4.94 4.68-7.9 0-3.388-5.622-8.354-10.126-14.28-12.953-3.524-1.84-7.5-2.635-11.46-2.297a20.93 20.93 0 0 0-10.904 4.208l-10.168 7.333c-13.388 9.538-28.787 15.883-45.014 18.546a42.6 42.6 0 0 1-25.192-3.623c-16.68-7.96-25.706-19.63-24.792-44.825a64.66 64.66 0 0 1 4.541-20.914 68.63 68.63 0 0 0 4.142-15.407c1.142-8.56-.2-17.804-11.853-22.54-3.712-1.243-6.985-3.532-9.426-6.6zm310.757 6.45c-1.44-1.98-3.315-3.6-5.484-4.737-9.882-7-11.996-13.296-9.025-25.25 1.77-7.076 5.398-13.296 8.054-19.972 4.656-11.698 6.912-23.682 3.256-36.008-6.398-21.6-20.736-37.634-44.128-39.546a106.11 106.11 0 0 0-24.335.628 211.79 211.79 0 0 0-35.618 9.701 58.63 58.63 0 0 1-19.736 3.709c-11.653-.228-18.537-4.88-22.993-15.72-.77-1.855-.6-4.194-2.856-5.706-1.942 3.7-3.656 7.36-5.712 10.842-4.342 7.36-9.74 13.78-18.394 16.092-11.08 3.428-22.74 4.573-34.275 3.367A233.72 233.72 0 0 1 59.913 44.85C52.02 42 43.65 40.712 35.264 41.055c-11.853.485-19.308 6.534-23.65 17.32a58.71 58.71 0 0 0-4.698 25.448c.346 8.726 2.634 17.266 6.698 24.997 2.856 5.707 5.484 11.242 7.94 17.12 5.056 11.87 2.085 20.172-8.57 26.563-.343.2-.428.77-.6 1.085 2.856 1.084 5.712 2.025 8.397 3.252 3.98 1.477 7.348 4.252 9.556 7.876s3.128 7.886 2.612 12.097c-.297 5.562-1.256 11.07-2.856 16.406a94.27 94.27 0 0 0-5.227 22.312c-.686 11.584.514 22.826 7.912 32.384 3.497 4.366 7.855 7.97 12.802 10.585a40.95 40.95 0 0 0 15.96 4.623c15.852 1.912 29.648-4.023 43.214-10.842a186.77 186.77 0 0 0 20.879-13.81c13.853-9.5 26.763-5.878 36.73 6.42 1.143 1.398 1.486 3.48 3.685 4.194l2.542-6.363a23.74 23.74 0 0 1 10.484-12.57 23.79 23.79 0 0 1 16.136-2.809 79.3 79.3 0 0 1 25.135 7.875l25.4 13.04a76.04 76.04 0 0 0 31.904 9.158 21.24 21.24 0 0 0 11.701-2.308c3.6-1.87 6.587-4.734 8.607-8.25a50.43 50.43 0 0 0 6.57-21.056c1.2-12.04.486-24.1.714-36.18.23-11.47 2.057-22.198 12.14-29.674l.086-.028zM163.053 128.82l5.398-7.903a27.79 27.79 0 0 1 14.281-10.471c7.77-2.083 12.853 1.683 13.196 9.615a31.72 31.72 0 0 1-2.113 12.269c-5.897 15.374-13.7 29.944-23.25 43.37a13.91 13.91 0 0 1-6.255 5.335c-4.94 2.026-6.94 1.627-10.054-2.853a246.97 246.97 0 0 1-25.335-45.452c-1.26-2.98-2.153-6.104-2.656-9.3-1.17-7.22.428-11.64 5.313-13.753 6.683-2.853 13.138-3.566 17.822 2.254l10.797 13.582c.885 1.198 1.257 2.682 2.856 3.3zM43.977 182.805a5.71 5.71 0 0 1 2.926 2.603 5.7 5.7 0 0 1 .559 3.874c-.1 3.903-.874 7.76-2.256 11.412a120.06 120.06 0 0 0-5.941 17.12 27.93 27.93 0 0 0-.6 10.357c1.828 11.07 8.57 16.948 22.593 18.83 6.973.615 14-.472 20.45-3.167l24.392-8.274c2.37-.963 4.963-1.24 7.483-.8.572 1.626-.828 2.026-1.656 2.5-11.894 7.3-25.048 12.342-38.788 14.836a37.16 37.16 0 0 1-26.726-6.53 37.1 37.1 0 0 1-14.89-23.114 24.71 24.71 0 0 1 .171-10.385 46.14 46.14 0 0 1 2.37-7.276l9.9-21.998zm-18.77-67.025c-5.603-12.12-9.137-25.1-10.454-38.375a25.67 25.67 0 0 1 1.427-11.325c1.32-3.62 3.44-6.898 6.2-9.6 2.467-2.654 5.56-4.646 9-5.793s7.1-1.4 10.68-.77a52.54 52.54 0 0 1 14.652 4.308 200.48 200.48 0 0 0 40.558 14.437c1.4.342 3.37 0 4 3.167a78.17 78.17 0 0 1-16.938-.542c-10.1-1.757-19.88-4.937-29.076-9.444a43.12 43.12 0 0 0-17.337-4.68 21.5 21.5 0 0 0-10.768 2.283c-7.77 4.052-10.797 9.473-9.568 18.146A155.07 155.07 0 0 0 22.24 98.63c1.6 5.62 3.6 11.07 2.97 17.148zm216.706-71.728a122.65 122.65 0 0 0 13.71-2.026l4.8-.742c34.903-3.48 48.984 23.996 46.327 48.762-1.306 10.802-3.747 21.436-7.283 31.728a38.01 38.01 0 0 1-.4-11.784c.543-7.847 1.743-15.636 1.57-23.54-.57-27.4-24.02-46.45-50.07-41.258-3.142.628-6.54 0-9.483 1.683l.828-2.825zm54.756 157.153c.856 10.7 2.484 21.456-1.686 31.785-2.597 5.772-7.16 10.436-12.876 13.163a26.79 26.79 0 0 1-18.342 1.73c-5.378-1.52-10.458-3.942-15.024-7.162-6.198-4.365-11.94-9.387-19.137-12.297a56.66 56.66 0 0 1 19.594 4.166c8.026 3.053 15.9 6.505 24.02 9.273 9.054 3.08 13.653.513 17.137-8.56 3.285-8.4 2.857-17.3 4.056-26.022.43-2.054.114-4.394 2.257-6.077z"/></svg>
